images/icons/P_N_icon.svg

<svg width="55" height="55" viewBox="0 0 55 55" fill="none" xmlns="http://www.w3.org/2000/svg">
<rect width="55" height="55" rx="10" fill="#10A694"/>
<path d="M17.4963 29.72C16.9013 29.4327 16.2371 29.2667 15.5333 29.2667C13.0338 29.2667 11 31.3004 11 33.8C11 36.2996 13.0338 38.3333 15.5333 38.3333C17.1019 38.3333 18.4862 37.5321 19.3005 36.3177L23.5828 38.4614C23.5092 38.785 23.4667 39.121 23.4667 39.4667C23.4667 41.9662 25.5004 44 28 44C30.4996 44 32.5333 41.9662 32.5333 39.4667C32.5333 38.5271 32.246 37.6539 31.7542 36.9291L37.7716 30.6374C38.5264 31.1973 39.4569 31.5333 40.4667 31.5333C42.9662 31.5333 45 29.4996 45 27C45 24.5004 42.9662 22.4667 40.4667 22.4667C39.4206 22.4667 38.4595 22.8259 37.6911 23.4232L31.5768 17.3089C32.1741 16.5405 32.5333 15.5794 32.5333 14.5333C32.5333 12.0338 30.4996 10 28 10C25.5004 10 23.4667 12.0338 23.4667 14.5333C23.4667 14.8779 23.5086 15.2128 23.5823 15.5358L19.5635 17C18.8098 15.5375 17.2883 14.5333 15.5333 14.5333C13.0338 14.5333 11 16.5671 11 19.0667C11 21.5662 13.0338 23.6 15.5333 23.6C16.1782 23.6 16.7908 23.4629 17.3467 23.2186L19.4326 26.7291L17.4963 29.72ZM15.5333 37.2C13.6582 37.2 12.1333 35.6751 12.1333 33.8C12.1333 31.9249 13.6582 30.4 15.5333 30.4C17.4084 30.4 18.9333 31.9249 18.9333 33.8C18.9333 35.6751 17.4084 37.2 15.5333 37.2ZM19.8054 35.3022C19.9715 34.8313 20.0667 34.327 20.0667 33.8C20.0667 32.41 19.4365 31.1656 18.4488 30.3337L20.0786 27.8166L24.9921 36.0848C24.5785 36.4531 24.2322 36.894 23.9755 37.3898L19.8054 35.3022ZM28 19.0667C29.0461 19.0667 30.0071 18.7074 30.7755 18.1101L36.8904 24.225C36.5238 24.6965 36.2495 25.2411 36.0914 25.8338L32.5316 25.3442C32.5311 25.3295 32.5333 25.3147 32.5333 25.3C32.5333 22.8004 30.4996 20.7667 28 20.7667C26.4315 20.7667 25.0465 21.5679 24.2328 22.7823L23.5568 22.4446L26.0376 18.6133C26.6321 18.9006 27.2962 19.0667 28 19.0667ZM28.5667 34.9724V29.7937C30.4083 29.5625 31.9066 28.224 32.3758 26.4662L35.9356 26.9558C35.9356 26.9705 35.9333 26.9853 35.9333 27C35.9333 28.0823 36.3153 29.0757 36.9505 29.856L31.0005 36.0774C30.3335 35.4864 29.4943 35.0892 28.5667 34.9724ZM28 21.9C29.8751 21.9 31.4 23.4249 31.4 25.3C31.4 27.1751 29.8751 28.7 28 28.7C26.1249 28.7 24.6 27.1751 24.6 25.3C24.6 23.4249 26.1249 21.9 28 21.9ZM23.7279 23.7978C23.5619 24.2687 23.4667 24.773 23.4667 25.3C23.4667 27.6075 25.2007 29.5137 27.4333 29.7942V34.973C26.8961 35.0404 26.389 35.2014 25.9271 35.4399L20.7659 26.7546L22.9368 23.4022L23.7279 23.7978ZM28 42.8667C26.1249 42.8667 24.6 41.3418 24.6 39.4667C24.6 37.5916 26.1249 36.0667 28 36.0667C29.8751 36.0667 31.4 37.5916 31.4 39.4667C31.4 41.3418 29.8751 42.8667 28 42.8667ZM40.4667 23.6C42.3418 23.6 43.8667 25.1249 43.8667 27C43.8667 28.8751 42.3418 30.4 40.4667 30.4C38.5916 30.4 37.0667 28.8751 37.0667 27C37.0667 25.1249 38.5916 23.6 40.4667 23.6ZM28 11.1333C29.8751 11.1333 31.4 12.6582 31.4 14.5333C31.4 16.4084 29.8751 17.9333 28 17.9333C26.1249 17.9333 24.6 16.4084 24.6 14.5333C24.6 12.6582 26.1249 11.1333 28 11.1333ZM23.9699 16.6C24.247 17.1377 24.6261 17.6132 25.0845 17.9996L22.5368 21.9346L19.8054 20.5689C19.9715 20.098 20.0667 19.5937 20.0667 19.0667C20.0667 18.7221 20.0247 18.3872 19.9511 18.0642L23.9699 16.6ZM12.1333 19.0667C12.1333 17.1916 13.6582 15.6667 15.5333 15.6667C17.4084 15.6667 18.9333 17.1916 18.9333 19.0667C18.9333 20.9418 17.4084 22.4667 15.5333 22.4667C13.6582 22.4667 12.1333 20.9418 12.1333 19.0667ZM18.3185 22.6361C18.6982 22.3392 19.0314 21.9856 19.3005 21.5844L21.9168 22.8922L20.1199 25.6672L18.3185 22.6361Z" fill="white"/>
</svg>

<?xml version="1.0" encoding="utf-8"?>
<!-- Generator: Adobe Illustrator 24.0.2, SVG Export Plug-In . SVG Version: 6.00 Build 0)  -->
<svg version="1.1" id="Layer_1" xmlns="http://www.w3.org/2000/svg" xmlns:xlink="http://www.w3.org/1999/xlink" x="0px" y="0px"
	 viewBox="0 0 55 55" style="enable-background:new 0 0 55 55;" xml:space="preserve">
<style type="text/css">
	.st0{fill:#10A694;}
	.st1{fill:#FFFFFF;}
</style>
<path class="st0" d="M10,0h35c5.5,0,10,4.5,10,10v35c0,5.5-4.5,10-10,10H10C4.5,55,0,50.5,0,45V10C0,4.5,4.5,0,10,0z"/>
<path class="st1" d="M17.5,29.7c-0.6-0.3-1.3-0.5-2-0.5c-2.5,0-4.5,2-4.5,4.5s2,4.5,4.5,4.5c1.6,0,3-0.8,3.8-2l4.3,2.1
	c-0.1,0.3-0.1,0.7-0.1,1c0,2.5,2,4.5,4.5,4.5s4.5-2,4.5-4.5c0-0.9-0.3-1.8-0.8-2.5l6-6.3c0.8,0.6,1.7,0.9,2.7,0.9
	c2.5,0,4.5-2,4.5-4.5s-2-4.5-4.5-4.5c-1,0-2,0.4-2.8,1l-6.1-6.1c0.6-0.8,1-1.7,1-2.8c0-2.5-2-4.5-4.5-4.5s-4.5,2-4.5,4.5
	c0,0.3,0,0.7,0.1,1l-4,1.5c-0.8-1.5-2.3-2.5-4-2.5c-2.5,0-4.5,2-4.5,4.5c0,2.5,2,4.5,4.5,4.5c0.6,0,1.3-0.1,1.8-0.4l2.1,3.5
	L17.5,29.7z M15.5,37.2c-1.9,0-3.4-1.5-3.4-3.4s1.5-3.4,3.4-3.4s3.4,1.5,3.4,3.4S17.4,37.2,15.5,37.2z M19.8,35.3
	c0.2-0.5,0.3-1,0.3-1.5c0-1.4-0.6-2.6-1.6-3.5l1.6-2.5l4.9,8.3c-0.4,0.4-0.8,0.8-1,1.3L19.8,35.3z M28,19.1c1,0,2-0.4,2.8-1l6.1,6.1
	c-0.4,0.5-0.6,1-0.8,1.6l-3.6-0.5c0,0,0,0,0,0c0-2.5-2-4.5-4.5-4.5c-1.6,0-3,0.8-3.8,2l-0.7-0.3l2.5-3.8
	C26.6,18.9,27.3,19.1,28,19.1z M28.6,35v-5.2c1.8-0.2,3.3-1.6,3.8-3.3l3.6,0.5c0,0,0,0,0,0c0,1.1,0.4,2.1,1,2.9l-6,6.2
	C30.3,35.5,29.5,35.1,28.6,35z M28,21.9c1.9,0,3.4,1.5,3.4,3.4c0,1.9-1.5,3.4-3.4,3.4s-3.4-1.5-3.4-3.4C24.6,23.4,26.1,21.9,28,21.9
	z M23.7,23.8c-0.2,0.5-0.3,1-0.3,1.5c0,2.3,1.7,4.2,4,4.5V35c-0.5,0.1-1,0.2-1.5,0.5l-5.2-8.7l2.2-3.4L23.7,23.8z M28,42.9
	c-1.9,0-3.4-1.5-3.4-3.4c0-1.9,1.5-3.4,3.4-3.4s3.4,1.5,3.4,3.4C31.4,41.3,29.9,42.9,28,42.9z M40.5,23.6c1.9,0,3.4,1.5,3.4,3.4
	s-1.5,3.4-3.4,3.4c-1.9,0-3.4-1.5-3.4-3.4S38.6,23.6,40.5,23.6z M28,11.1c1.9,0,3.4,1.5,3.4,3.4s-1.5,3.4-3.4,3.4s-3.4-1.5-3.4-3.4
	S26.1,11.1,28,11.1z M24,16.6c0.3,0.5,0.7,1,1.1,1.4l-2.5,3.9l-2.7-1.4c0.2-0.5,0.3-1,0.3-1.5c0-0.3,0-0.7-0.1-1L24,16.6z
	 M12.1,19.1c0-1.9,1.5-3.4,3.4-3.4s3.4,1.5,3.4,3.4s-1.5,3.4-3.4,3.4S12.1,20.9,12.1,19.1z M18.3,22.6c0.4-0.3,0.7-0.7,1-1.1
	l2.6,1.3l-1.8,2.8L18.3,22.6z"/>
</svg>
